X:1
T:Marche des Héros.
T:Marche des Héros.
T:Musique de JOHN STRELETSKIE.
T:Dédié à S.M. Le Roi ALBERT, le 14 Novembre 1918.
C:Musique de JOHN STRELETSKIE.
%%score { 1 { ( 2 4 5 ) | ( 3 6 ) } }
L:1/8
Q:1/4=170
M:2/2
K:C
V:1 treble nm="Piano"
V:2 treble nm="Piano"
V:4 treble 
V:5 treble 
V:3 bass 
V:6 bass 
V:1
 z8 | z8 | z8 | z8 | z8 | z8 | z8 | z8 | G2 (3GGG BG B2 | [Bd]2 (3[Bd][Bd][Bd] [Bd][GB] [Bd]2 | %10
 G2 (3GGG cG c2 | [ce]2 (3[ce][ce][ce] [ce][Ac] [ce]2 | G2 (3GGG dG d2 | %13
 [df]2 (3[df][df][df] [G^ce]2 [Gce]2 | [GBdf]2 z2 z4 | z8 | z8 | z8 | z8 | z8 | z8 | z8 | z8 | z8 | %24
 z8 | z8 | z8 | z8 | z8 | z8 | z8 | z8 | z8 | z8 | z8 | z8 | z8 | z8 | z8 | z8 | z8 | z8 | z8 | %43
 z8 | z8 | z8 | z8 | z8 ||[K:F][M:2/2] z | z8 | z8 ||S z8 | z8 | z8 | z8 | z8 | z8 | z8 | z8 | z8 | %60
 z8 | z8 | z8 | z8 | z8 | z8 | z8 | z8 | z8 | z8 | z8 | z8 | z8 | z8 | z8 | z8 | z8 | z8 | z8 | %79
 z8 | z8 | z8 | z8 | z8 | z8 | z8 | z8!fine! || z8 | z8 | z8 | z8 | z8 | z8 | z8 | z8 | z8 | z8 | %97
 z8 |S z8!D.S.! |] %99
V:2
 c2 cc cGce | c2 cc cGce | cGce cGce | c4 z4 | d2 dd ed c2 | d2 dd ed c2 | %6
 [GBg]2 [GBg][GBg] [GBg]2 [GBg]2 | [GBg]2 z2 [GBg]2 z2 | [df]6 [ce]2 | [Bd]4 [fa]4 | [eg]6 [df]2 | %11
 [ce]2 z2 G4 | [df]6 [ce]2 | [Bd]4 [G^A^c]4 | [GBd]2 GG [Gg]2 [Gg]2 | [GBdg]2 z2 [Gg]3 [Ge] | %16
 [Ed]4 [Ec]4 | [Ge]4 [cea]4 | [ceg]8- | [ceg]4 [Gcg]3 [Ge] | [Ed]4 [Ec]4 | [Ge]4 [cea]4 | %22
 [Gdf]4- x4 | [Gdf]4 [EBf]3 [Ee] | [Dd]4 [Ee]4 | [Ff]4 [cc']4 | [Bb]3 [Aa] ([Gg]4 | [Gg]2) z2 z4 | %28
 [GBf]2 z2 [GBf]2 z2 | [GBf]2 z2 [GBg]2 z2 | z2 [GBg][GBg] [GBg]2 [GBg]2 | [GBf]2 z2 [Gg]3 [Ge] | %32
 [Ed]4 [Ec]4 | [Ge]4 [cea]4 | [ceg]8- | [ceg]2 [Gg]2 [Aa]2 [Bb]2 |!8va(! d'6 c'2 | b4 c'4 | a8 | %39
 a2!8va)! [Aa]2 [^G^g]2 [Aa]2 | [dd']3 [Aa] [^G^g]2 [Aa]2 | [dd']3 [Aa] [^G^g]2 [Aa]2 | %42
 [ec']3 [Gce] [Gce]2 [Gce]2 | [Gce]2 e2 d2 e2 | [Gfg]4 [^Gf^g]4 | [Afa]4 [Bfb]4 | %46
 [cec']3 [cec'] [cec']2 [cec']2 | [cec']2 z2 z4 ||[K:F][M:2/2] (3c/d/e/ | [Acf]2 z2 [Acf]2 z2 | %50
 [Acf]2 z2 [Acf]2 z2 || A8 | ^G4 A4 | F8- | F8 | F8 | E4 F4 | D8- | D8 | D8 |{/E} F4 D4 | %61
 z2 BB (3B2 G2 B2 | d2 x2 C4 | D4 E4 | F4 E4 | D8 | C4 [B,C]2 z2 | A8 | ^G4 A4 | F8- | F8 | E6 EF | %72
 A2 F2 E2 F2 | z2 BB (3B2 G2 B2 | (3d2 B2 G2 F4 | E4 D4 | E4 (3D2 E2 C2 | F6 A2 | %78
 [CFAc]3 [Ac] [FA]3 [GB] | [Ac]4 [Ad]3 e |{/g} [Af]3 e [Af]3 a | [Ac]6 ed | [Ac]4 (3A2 G2 F2 | %83
 [EGc]4 [EGc]3 [EGc] | [F=Bd]4 [G_Be]4 | [Acf]8- | [Acf]2 z2 [Acf]2 z2 || %87
 z2 [FAd][FAd] [FAd]2 [FAd]2 | z2 [GBd][GBd] z2 [FAd]2 | z2 [GBd][GBd] [GBd]2 [GBd]2 | %90
 z2 [GBd][GBd] [GBd]2 [GBd]2 | z2 [EGc][EGc] [EGc]2 [EGc]2 | z2 [EGc]2 z2 [EBc]2 | %93
 z2 [FAc][FAc] z2 [EBc]2 | z2 [FAc][FAc] [FAc]2 [FAc]2 | F3 E _E4 | _E3 D _D4 | B,3 A, G,2 F,2 | %98
 [B,C]2 z2 z4 |] %99
V:3
 C2 CC CG,CE | C2 CC CG,CE | CG,CE CG,CE | C4 [C,,C,]2 z2 | (([D,G,B,]4 [C,G,C]2)) z2 | %5
 (([D,G,B,]4 [C,G,C]2)) z2 | [G,,D,G,]2 z2 [G,,D,G,]2 [G,,D,G,]2 | [G,,D,G,]2 z2 [G,,D,G,]2 z2 | %8
 G,,2 z2 [D,F,G,B,]2 z2 | G,,2 z2 [D,F,G,B,]2 z2 | C,2 z2 [E,G,C]2 z2 | C,2 z2 [E,G,C]2 z2 | %12
 G,,2 z2 [D,F,G,B,]2 z2 | [G,,D,G,]2 z2 [G,,D,G,]2 [G,,D,G,]2 | %14
 [G,,D,G,]2 z2 [G,,D,G,]2 [G,,D,G,]2 | [G,,D,G,]2 z2 z4 | C,2 [E,G,C]2 G,,2 [E,G,C]2 | %17
 C,2 [E,G,C]2 G,,2 [E,G,C]2 | C,2 [E,G,C]2 G,,2 [E,G,C]2 | C,2 [E,G,C]2 G,,2 [E,G,C]2 | %20
 C,2 [E,G,C]2 G,,2 [E,G,C]2 | C,2 [E,G,C]2 G,,2 [E,G,C]2 | D,2 [F,G,B,]2 G,,2 [F,G,B,]2 | %23
 D,2 [G,B,]2 G,,2 [G,B,]2 | D,2 [G,B,]2 G,,2 [G,B,]2 | D,2 [G,B,]2 G,,2 [G,B,]2 | %26
 D,2 [G,B,]2 G,,2 [G,B,]2 | B,,2"^marcato" D,2 [G,,,G,,]2 [B,,,B,,]2 | %28
 [D,,D,]2 [^C,,^C,]2 [D,,D,]2 [C,,C,]2 | [D,,D,]2 [^C,,^C,]2 [D,,D,]2 [E,,E,]2 | %30
 [F,,F,]2 [D,,D,]2 [B,,,B,,]2 [A,,,A,,]2 | [G,,,G,,]2 z2 z4 | C,2 [E,G,C]2 G,,2 [E,G,C]2 | %33
 C,2 [E,G,C]2 G,,2 [E,G,C]2 | C,2 [E,G,C]2 G,,2 [E,G,C]2 | C,2 G,2 E,2 D,2 | %36
 C,2 [E,G,C]2 G,,2 [E,G,C]2 | C,2 [E,G,C]2 E,,2 [E,G,C]2 | F,,2 [F,A,D][F,A,D] [F,A,D]2 [F,A,D]2 | %39
 [F,A,D]2 z2 z4 | F,,2 [F,A,D]2 [F,^G,D]2 [F,G,D]2 | F,,2 [F,A,D]2 [F,^G,D]2 [F,G,D]2 | %42
 C,2 [E,G,C]2 G,,2 [E,G,C]2 | C,2 [E,G,C]2 G,,2 [E,G,C]2 | D,2 [F,G,B,]2 G,,2 [F,G,B,]2 | %45
 D,2 [F,G,B,]2 G,,2 [F,G,B,]2 | [C,C]3 [A,,A,] [G,,G,]2 [E,,E,]2 | [C,,C,]2 z2 z4 || %48
[K:F][M:2/2] x | [F,,F,]2 z2 [D,,D,]2 z2 | [C,,C,]2 z2 [A,,,A,,]2 z2 || [F,,F,]2 z2 [C,,C,]2 z2 | %52
 [F,,F,]2 z2 [C,,C,]2 z2 | [F,,F,]2 z2 [C,,C,]2 z2 | [F,,F,]2 z2 [C,,C,]2 z2 | %55
 [D,,D,]2 z2 [A,,,A,,]2 z2 | [D,,D,]2 z2 [A,,,A,,]2 z2 | z2 [F,A,]2 z2 [F,A,]2 | %58
 z2 [F,A,]2 z2 [F,A,]2 | z2 [G,B,]2 z2 [G,B,]2 | [C,,C,]2 z2 [G,,,G,,]2 z2 | %61
 [C,,C,]2 z2 [G,,,G,,]2 z2 | [C,,C,]2 z2 [G,,,G,,]2 z2 | B,,2 z2 G,,2 z2 | C,2 z2 G,,2 z2 | %65
 z2 [F,_A,]2 [F,A,]2 [F,A,]2 | [C,E,=A,]2 z2 [C,,C,]2 z2 | [F,,F,]2 z2 [C,,C,]2 z2 | %68
 [F,,F,]2 z2 [C,,C,]2 z2 | [F,,F,]2 z2 [C,,C,]2 z2 | [F,,F,]2 z2 [C,,C,]2 z2 | D,2 z2 A,,2 z2 | %72
 D,2 z2 A,,2 z2 | z2 [G,B,]2 z2 [G,B,]2 | z2 [G,B,]2 z2 [G,B,]2 | C,2 z2 B,,2 z2 | C,2 z2 G,,2 z2 | %77
 [F,,F,]2 z2 [C,,C,]2 z2 | [F,,F,]2 z2 z4 | [F,,F,]2 z2 [F,A,C]2 z2 | [F,,F,]2 z2 [F,A,C]2 z2 | %81
 [F,,F,]2 z2 [F,A,C]2 z2 | [F,,F,]2 z2 [F,A,C]2 z2 | [C,,C,]2 z2 [E,G,B,C]2 z2 | %84
 [G,,D,G,]2 z2 [C,,C,]2 z2 | [F,,F,]2 z2 [C,,C,]2 z2 | F,,2 z2 [F,,C,F,]2"^Fin." z2 || %87
 [D,,D,]6 [C,,C,]2 | [B,,,B,,]4 [A,,,A,,]4 | [B,,,B,,]6 [A,,,A,,]2 | [G,,,G,,]8 | %91
 [C,,C,]6 [B,,,B,,]2 | [A,,,A,,]4 [G,,,G,,]4 | [A,,,A,,]6 [G,,,G,,]2 |"^rall." [F,,,F,,]8 | %95
 [F,,F,]3 [G,,E,] [_G,,_E,]4 | [_G,,_E,]3 [D,,D,] [_D,,_D,]4 | %97
 [B,,,B,,]3 [A,,,A,,] [G,,,G,,]2 [F,,,F,,]2 | [C,,C,]2 z2 C,,2"_al Fin." z2 |] %99
V:4
 x8 | x8 | x8 | x8 | ([FGB]4 [EGc]2) z2 | ([FGB]4 [EGc]2) z2 | x8 | x8 | x8 | x8 | x8 | x8 | x8 | %13
 x8 | x8 | x8 | x8 | x8 | z2 cc (3c2 G2 c2 | e2 d2 x4 | x8 | x8 | x2 BB (3B2 G2 B2 | d2 c2 x4 | %24
 x8 | x8 | x8 | x8 | x8 | x8 | x8 | x8 | x8 | x8 | z2 cc (3c2 G2 c2 | x8 |!8va(! x8 | x8 | x8 | %39
 x2!8va)! x6 | x8 | x8 | x8 | x8 | x8 | x8 | x8 | x8 ||[K:F][M:2/2] x | x8 | x8 || %51
 z2 [A,F]2 z2 [A,F]2 | z2 [CF]2 z2 [CF]2 | z2 [A,C]2 z2 [A,C]2 | z2 [A,C]2 z2 [A,C]2 | %55
 z2 [G,D]2 z2 [G,D]2 | z2 [A,D]2 z2 [A,D]2 | z2 AA (3A2 F2 A2 | (3d2 A2 F2 (3A2 F2 D2 | x8 | %60
 z2 [G,D]2 z2 [G,B,]2 | E8- | E4 x4 | z2 [G,B,]2 z2 [G,B,]2 | z2 [B,C]2 z2 [B,C]2 | x8 | x8 | %67
 z2 [A,F]2 z2 [A,F]2 | z2 [CF]2 z2 [CF]2 | z2 [A,C]2 z2 [A,C]2 | z2 [A,C]2 z2 [A,C]2 | %71
 z2 [F,D]2 z2 [F,D]2 | z2 [A,D]2 z2 [A,D]2 | D8- | D4 x4 | z2 [B,C]2 z2 [B,C]2 | %76
 z2 [B,C]2 z2 [B,C]2 | z2 [A,C]2 z2 [A,C]2 | x8 | x8 | x8 | x8 | x8 | x8 | x8 | z2 FF (3F2 A2 c2 | %86
 x8 || x8 | x8 | x8 | x8 | x8 | x8 | x8 | x8 | x8 | x8 | x8 | x8 |] %99
V:5
 x8 | x8 | x8 | x8 | x8 | x8 | x8 | x8 | x8 | x8 | x8 | x8 | x8 | x8 | x8 | x8 | x8 | x8 | x8 | %19
 x8 | x8 | x8 | x8 | x8 | x8 | x8 | x8 | x8 | x8 | x8 | x8 | x8 | x8 | x8 | x8 | x8 |!8va(! x8 | %37
 x8 | x8 | x2!8va)! x6 | x8 | x8 | x8 | x8 | x8 | x8 | x8 | x8 ||[K:F][M:2/2] x | x8 | x8 || x8 | %52
 x8 | z2 cc (3c2 A2 c2 | (3f2 c2 A2 (3c2 A2 F2 | x8 | x8 | x8 | x8 | x8 | x8 | x8 | x8 | x8 | x8 | %65
 x8 | x8 | x8 | x8 | z2 cc (3c2 A2 c2 | (3f2 c2 A2 (3c2 A2 F2 | x8 | x8 | x8 | x8 | x8 | x8 | x8 | %78
 x8 | x8 | x8 | x8 | x8 | x8 | x8 | x8 | x8 || x8 | x8 | x8 | x8 | x8 | x8 | x8 | x8 | x8 | x8 | %97
 x8 | x8 |] %99
V:6
 x8 | x8 | x8 | x8 | x8 | x8 | x8 | x8 | x8 | x8 | x8 | x8 | x8 | x8 | x8 | x8 | x8 | x8 | x8 | %19
 x8 | x8 | x8 | x8 | x8 | x8 | x8 | x8 | x8 | x8 | x8 | x8 | x8 | x8 | x8 | x8 | x8 | x8 | x8 | %38
 x8 | x8 | x8 | x8 | x8 | x8 | x8 | x8 | x8 | x8 ||[K:F][M:2/2] x | x8 | x8 || x8 | x8 | x8 | x8 | %55
 x8 | x8 | [D,,D,]2 z2 [A,,,A,,]2 z2 | [D,,D,]2 z2 [A,,,A,,]2 z2 | [B,,,B,,]2 z2 [G,,,G,,]2 z2 | %60
 x8 | x8 | x8 | x8 | x8 | z2 F,,2 _A,,2 =B,,2 | x8 | x8 | x8 | x8 | x8 | x8 | x8 | %73
 B,,2 z2 G,,2 z2 | B,,2 z2 G,,2 z2 | x8 | x8 | x8 | x8 | x8 | x8 | x8 | x8 | x8 | x8 | x8 | x8 || %87
 x8 | x8 | x8 | x8 | x8 | x8 | x8 | x8 | x8 | x8 | x8 | x8 |] %99

